src/pos-icons/bugle.svg

<svg height="24" viewBox="0 0 24 24" width="24" xmlns="http://www.w3.org/2000/svg"><path d="m21 6c0 5-9 5-9 5s-6 0-7 0-2-1-2-1h-1v4h1s1-1 2-1h1.3c-.8.5-1.3 1.2-1.3 2 0 1.8 2.3 3 5.5 3s5.5-1.2 5.5-3c0-.6-.3-1.2-.8-1.7 2.6.5 5.8 1.7 5.8 4.7h1v-12zm-10.5 10.7c-2.3 0-4.1-.8-4.1-1.7s1.8-1.7 4.1-1.7 4.1.8 4.1 1.7-1.8 1.7-4.1 1.7z"/></svg>

<?xml version="1.0" encoding="UTF-8"?><!DOCTYPE svg PUBLIC "-//W3C//DTD SVG 1.1//EN" "http://www.w3.org/Graphics/SVG/1.1/DTD/svg11.dtd"><svg xmlns="http://www.w3.org/2000/svg" xmlns:xlink="http://www.w3.org/1999/xlink" version="1.1" id="mdi-bugle" width="24" height="24" viewBox="0 0 24 24"><path d="M21,6C21,11 12,11 12,11C12,11 6,11 5,11C4,11 3,10 3,10H2V14H3C3,14 4,13 5,13C5.2,13 5.7,13 6.3,13C5.5,13.5 5,14.2 5,15C5,16.8 7.3,18 10.5,18C13.7,18 16,16.8 16,15C16,14.4 15.7,13.8 15.2,13.3C17.8,13.8 21,15 21,18H22V6H21M10.5,16.7C8.2,16.7 6.4,15.9 6.4,15C6.4,14.1 8.2,13.3 10.5,13.3C12.8,13.3 14.6,14.1 14.6,15C14.6,15.9 12.8,16.7 10.5,16.7Z" /></svg>
